X:1
T: Ivy House
C:
R:Jig
Q:180
K:G
M:6/8
L:1/16
|:d2B2d2 d2B2d2|g6 g2f2e2|d2B2d2 d2c2B2|A2F2D2 D4d2|
d2B2d2 d2B2d2|g6 g2f2e2|d2B2d2 d2c2B2|G6 G4B2:|
|:B2A2B2 G2A2B2|c2d2e2 d4c2|B2A2B2 G2A2B2|A2F2D2 D4d2|
d2B2d2 d2B2d2|e2f2g2 g2f2e2|d2B2d2 c2B2A2|1G6 G4B2:|2G6 G6||
